assets/icons/notebook.svg

<svg width="17" height="16" viewBox="0 0 17 16" fill="none" xmlns="http://www.w3.org/2000/svg">
<path d="M4.14648 6.99935V8.99935C4.14648 11.5133 4.14648 12.7707 4.92782 13.5513C5.70915 14.332 6.96582 14.3327 9.47982 14.3327C11.9938 14.3327 13.2511 14.3327 14.0318 13.5513C14.8125 12.77 14.8132 11.5133 14.8132 8.99935V6.99935C14.8132 4.48535 14.8131 3.22802 14.0318 2.44735C13.2505 1.66668 11.9938 1.66602 9.47982 1.66602C6.96582 1.66602 5.70848 1.66602 4.92782 2.44735C4.14715 3.22868 4.14648 4.48535 4.14648 6.99935Z" stroke="currentColor" stroke-linecap="round" stroke-linejoin="round" fill="none"/>
<path d="M4.14648 6.9987H3.14648C2.88127 6.9987 2.62691 6.89334 2.43938 6.7058C2.25184 6.51827 2.14648 6.26391 2.14648 5.9987C2.14648 5.73348 2.25184 5.47913 2.43938 5.29159C2.62691 5.10405 2.88127 4.9987 3.14648 4.9987H5.47982M4.14648 11.6654H3.14648C2.88127 11.6654 2.62691 11.56 2.43938 11.3725C2.25184 11.1849 2.14648 10.9306 2.14648 10.6654C2.14648 10.4001 2.25184 10.1458 2.43938 9.95826C2.62691 9.77072 2.88127 9.66536 3.14648 9.66536H5.47982M7.81315 6.9987H10.4798M7.81315 4.33203H12.1465" stroke="currentColor" stroke-linecap="round" stroke-linejoin="round" fill="none"/>
</svg>

<svg xmlns="http://www.w3.org/2000/svg" width="17" height="16" fill="none" viewBox="0 0 17 16"><path stroke="currentColor" stroke-linecap="round" stroke-linejoin="round" d="M4.146 7v2c0 2.513 0 3.77.782 4.551.781.781 2.038.782 4.552.782s3.771 0 4.552-.782c.78-.781.781-2.038.781-4.552V7c0-2.514 0-3.771-.781-4.552s-2.038-.781-4.552-.781-3.772 0-4.552.781c-.78.782-.782 2.038-.782 4.552"/><path stroke="currentColor" stroke-linecap="round" stroke-linejoin="round" d="M4.146 6.999h-1a1 1 0 0 1 0-2H5.48m-1.334 6.666h-1a1 1 0 0 1 0-2H5.48M7.813 7h2.667M7.813 4.332h4.334"/></svg>
